svgs/regular/bitcoin-sign.svg

<svg xmlns="http://www.w3.org/2000/svg" viewBox="0 0 320 512"><!-- Font Awesome Pro 6.0.0-alpha2 by @fontawesome - https://fontawesome.com License - https://fontawesome.com/license (Commercial License) --><path d="M261.438 237.344C277.938 218.938 288 194.625 288 168C288 116.135 249.721 73.385 200 65.619V24C200 10.75 189.25 0 176 0S152 10.75 152 24V64H104V24C104 10.75 93.25 0 80 0S56 10.75 56 24V64H24C10.75 64 0 74.75 0 88V424C0 436.531 9.625 446.938 22.125 447.938C29.5 448.494 41.279 448.74 56 448.77V488C56 501.25 66.75 512 80 512S104 501.25 104 488V448.387C117.164 448.205 131.076 447.984 145.656 447.75C147.764 447.717 149.885 447.686 152 447.652V488C152 501.25 162.75 512 176 512S200 501.25 200 488V446.967C203.182 446.928 206.504 446.877 209.625 446.844C270.5 446.219 320 396.219 320 335.438C320 293.125 296.281 256.219 261.438 237.344ZM48 112H184C214.875 112 240 137.125 240 168S214.875 224 184 224H48V112ZM209.125 398.844C188.531 399.062 166.469 399.406 144.875 399.75C109 400.344 72.25 400.812 48 400.75V272H208.562C243.531 272 272 300.469 272 335.438C272 370.031 243.781 398.469 209.125 398.844Z"/></svg>

<svg xmlns="http://www.w3.org/2000/svg" viewBox="0 0 320 512"><!--! Font Awesome Pro 6.0.0-alpha3 by @fontawesome - https://fontawesome.com License - https://fontawesome.com/license (Commercial License) --><path d="M261.4 237.3C277.9 218.9 288 194.6 288 168c0-51.87-38.28-94.62-88-102.4V24C200 10.75 189.3 0 176 0S152 10.75 152 24V64h-48V24C104 10.75 93.25 0 80 0S56 10.75 56 24V64h-32C10.75 64 0 74.75 0 88v336c0 12.53 9.625 22.94 22.12 23.94C29.5 448.5 41.28 448.7 56 448.8V488C56 501.3 66.75 512 80 512s24-10.75 24-24v-39.61l48-.7344V488c0 13.25 10.75 24 24 24s24-10.75 24-24v-41.03c3.182-.0391 6.504-.0898 9.625-.123C270.5 446.2 320 396.2 320 335.4C320 293.1 296.3 256.2 261.4 237.3zM48 112h136c30.88 0 56 25.12 56 56S214.9 224 184 224H48V112zM209.1 398.8C188.5 399.1 72.25 400.8 48 400.8V272h160.6C243.5 272 272 300.5 272 335.4C272 370 243.8 398.5 209.1 398.8z"/></svg>
